X: 41
M:4/4
L:1/8
K:G
|:ba|g3 a g2 ba|g3 a gage|dedB dedB|A2 e4 f2|g3 a g2 fe|d3 e d2 cd| G3 A B2 e2|d2 B4:|

